icons/plexis/48/tumblr.svg

<svg viewBox="0 0 48 48" xmlns="http://www.w3.org/2000/svg" xmlns:xlink="http://www.w3.org/1999/xlink">
  <linearGradient id="a" gradientTransform="matrix(0 -1 1 0 -.0000015 47.999998)" gradientUnits="userSpaceOnUse" x1="1" x2="47">
    <stop offset="0" stop-color="#657493"/>
    <stop offset="1" stop-color="#707f9d"/>
  </linearGradient>
  <path d="m47 24c0 22.703-.297 23-23 23-22.703 0-23-.297-23-23 0-22.703.297-23 23-23 22.703 0 23 .297 23 23z" fill="url(#a)"/>
  <path d="m17 18c4 0 6-1 6-5.996h3v5.996h7v5h-7v7.449c0 5.551 5.234 3.266 7 1.551v3.98c-1.371 1.086-4 2.02-7 2.02-3.83498 0-7-2-7-8v-7h-2" opacity=".1"/>
  <path d="m16 17c4 0 6-1 6-5.996h3v5.996h7v5h-7v7.449c0 5.551 5.234 3.266 7 1.551v3.98c-1.371 1.086-4 2.02-7 2.02-3.83498 0-7-2-7-8v-7h-2" fill="#f1f3f4"/>
</svg>

<svg xmlns="http://www.w3.org/2000/svg" viewBox="0 0 48 48">
 <defs>
  <linearGradient id="linearGradient3764" x1="1" x2="47" gradientUnits="userSpaceOnUse" gradientTransform="matrix(0,-1,1,0,-1.5e-6,47.999998)">
   <stop style="stop-color:#657493;stop-opacity:1"/>
   <stop offset="1" style="stop-color:#707f9d;stop-opacity:1"/>
  </linearGradient>
 </defs>
 <g>
  
  
  
 </g>
 <g>
  <path d="m 47,24 C 47,46.703 46.703,47 24,47 1.297,47 1,46.703 1,24 1,1.297 1.297,1 24,1 46.703,1 47,1.297 47,24 z" style="fill:url(#linearGradient3764);fill-opacity:1"/>
 </g>
 <g>
  <g>
   <g transform="translate(1,1)">
    <g style="opacity:0.1">
     <!-- color: #707f9d -->
    </g>
   </g>
  </g>
 </g>
 <g>
  <g>
   <!-- color: #707f9d -->
   <g>
    <path d="m 17,18 c 4,0 6,-1 6,-5.996 l 3,0 0,5.996 7,0 0,5 -7,0 0,7.449 C 26,36 31.234,33.715 33,32 l 0,3.98 C 31.629,37.066 29,38 26,38 22.16502,38 19,36 19,30 l 0,-7 -2,0" style="fill:#000;opacity:0.1;fill-opacity:1;stroke:none;fill-rule:nonzero"/>
    <path d="m 16,17 c 4,0 6,-1 6,-5.996 l 3,0 0,5.996 7,0 0,5 -7,0 0,7.449 C 25,35 30.234,32.715 32,31 l 0,3.98 C 30.629,36.066 28,37 25,37 21.16502,37 18,35 18,29 l 0,-7 -2,0" style="fill:#f1f3f4;fill-opacity:1;stroke:none;fill-rule:nonzero"/>
   </g>
  </g>
 </g>
 <g>
  
 </g>
</svg>
